!!!OTL: SCHIEBEN WIR DEN WAGEN
!!!ARE: Europa, Mitteleuropa, Deutschland, Rheinland, Siebengebirge
!!!SCT: E0990
!!!YEM: Copyright 1995, estate of Helmut Schaffrath.
**kern
*ICvox
*Ivox
*M2/4
*k[b-]
*F:
=1
{8c
8c
8c
8c
=2
4d
8d}
{8d
=3
8c
8c
8c
8c
=4
4f
4r}
=5
{8c
8c
8c
8c
=6
4d
8d}
{8d
=7
8c
8c
8c
8c
=8
4f
8r}
{8f
=9
8f
8f
8a
8a
=10
8a
8g
8g}
{8f
=11
8e
8f
8g
8a
=12
4f
8r}
{8f
=13
8f
8f
8a
8a
=14
8a
8g
8g}
{8f
=15
8e
8f
8g
8a
=16
4f
4r}
==
!!!AGN: Tanz - Lied, Reigen, Gesellschafts - Spiel
!!!ONB: ESAC (Essen Associative Code) Database: ERK2
!!!AMT: simple duple
!!!AIN: vox
!!!EED: Helmut Schaffrath
!!!EEV: 1.0
*-
